symbols-de/shields/motorway_5x3_z16.svg

<?xml version="1.0" encoding="UTF-8" standalone="no"?>
<svg
   xmlns:dc="http://purl.org/dc/elements/1.1/"
   xmlns:cc="http://creativecommons.org/ns#"
   xmlns:rdf="http://www.w3.org/1999/02/22-rdf-syntax-ns#"
   xmlns:svg="http://www.w3.org/2000/svg"
   xmlns="http://www.w3.org/2000/svg"
   xmlns:sodipodi="http://sodipodi.sourceforge.net/DTD/sodipodi-0.dtd"
   xmlns:inkscape="http://www.inkscape.org/namespaces/inkscape"
   width="100%"
   height="100%"
   viewBox="0 0 42.0 36.0"
   id="svg2"
   version="1.1"
   inkscape:version="0.91 r13725"
   sodipodi:docname="autobahn_5x3_z16.svg">
  <metadata
     id="metadata9">
    <rdf:RDF>
      <cc:Work
         rdf:about="">
        <dc:format>image/svg+xml</dc:format>
        <dc:type
           rdf:resource="http://purl.org/dc/dcmitype/StillImage" />
        <dc:title></dc:title>
      </cc:Work>
    </rdf:RDF>
  </metadata>
  <defs
     id="defs7" />
  <sodipodi:namedview
     pagecolor="#ffffff"
     bordercolor="#666666"
     borderopacity="1"
     objecttolerance="10"
     gridtolerance="10"
     guidetolerance="10"
     inkscape:pageopacity="0"
     inkscape:pageshadow="2"
     inkscape:window-width="1025"
     inkscape:window-height="686"
     id="namedview5"
     showgrid="false"
     inkscape:zoom="6.5555556"
     inkscape:cx="21"
     inkscape:cy="18.076271"
     inkscape:window-x="276"
     inkscape:window-y="318"
     inkscape:window-maximized="0"
     inkscape:current-layer="svg2" />
  <path
     style="fill:#365eaf;fill-opacity:1;stroke:#0528a2;stroke-width:1;stroke-miterlimit:4;stroke-dasharray:none;stroke-opacity:1"
     d="m 21,0.4999983 c -0.293905,0 -0.44043,0.00357 -0.44043,0.012818 L 1.162184,2.4482408 C 0.721322,2.5410422 0.5,2.6813326 0.5,2.866942 l 0,30.266113 c 0,0.18561 0.221324,0.325896 0.662184,0.418701 L 20.55957,35.48718 c 0,0.0093 0.146528,0.01282 0.44043,0.01282 0.293907,0 0.44043,-0.0035 0.44043,-0.01282 l 19.397387,-1.935424 c 0.440862,-0.0928 0.565535,-0.24562 0.662184,-0.418701 0,-16.253567 0,-15.906183 0,-30.2661133 0,-0.1856094 -0.221322,-0.3258994 -0.662184,-0.4187012 L 21.44043,0.5128157 c 0,-0.00925 -0.146528,-0.012818 -0.44043,-0.012818 z"
     id="path6"
     inkscape:connector-curvature="0"
     sodipodi:nodetypes="sccccccsccccccs" />
</svg>

<?xml version="1.0" encoding="UTF-8"?>
<svg xmlns="http://www.w3.org/2000/svg" xmlns:xlink="http://www.w3.org/1999/xlink" width="40pt" height="48pt" viewBox="0 0 40 48" version="1.1">
<g id="surface1">
<path style="fill-rule:nonzero;fill:rgb(21.176471%,36.862745%,68.627451%);fill-opacity:1;stroke-width:1;stroke-linecap:butt;stroke-linejoin:miter;stroke:rgb(1.960784%,15.686275%,63.529412%);stroke-opacity:1;stroke-miterlimit:4;" d="M 21 0.500977 C 20.704688 0.500977 20.561133 0.503906 20.561133 0.512695 L 1.160742 2.449219 C 0.721875 2.540039 0.500391 2.680664 0.500391 2.868164 L 0.500391 33.131836 C 0.500391 33.319336 0.721875 33.459961 1.160742 33.550781 L 20.561133 35.487305 C 20.561133 35.496094 20.704688 35.499023 21 35.499023 C 21.295313 35.499023 21.438867 35.496094 21.438867 35.487305 L 40.839258 33.550781 C 41.278125 33.459961 41.405273 33.304688 41.499609 33.131836 C 41.499609 16.880859 41.499609 17.226562 41.499609 2.868164 C 41.499609 2.680664 41.278125 2.540039 40.839258 2.449219 L 21.438867 0.512695 C 21.438867 0.503906 21.295313 0.500977 21 0.500977 Z M 21 0.500977 " transform="matrix(0.952381,0,0,1.333333,0,0)"/>
</g>
</svg>
